X:191
T:Overture to La Italiana. Le4.191
T:aka L'italiana in Algeri,aka. Le4.191
T:Italian Girl in Algiers. Le4.191, The
C:Composed by Giochino Rossini.
%
N:Transcribed as three bars per line in most of the transcription to avoid half bars.
N:Note corrected to A as written underneath (forgotten which bar!!)
N:Strange mark in bar 45
N:Curious mark after last g in bar 61 could be a natural to cancel accidental? Ignored.
N:First note bar 63 taken a c' but is missing a ledger line?
N:Unknown mark above beginning of bar 105.
N:False bar line in bar 111 ignored.
%
M:3/4
L:1/8
U:w=!wedge!
B:L.Leadley MS#4 c1850
Z:vmp. Peter Dunk 2016
%%barnumbers 1
N:Bar numbers inserted to aid transcription
Q:"Violin Primo   "1/4=100
K:C clef=treble
Ez Ez Ez|F>E F2z2|Ez Ez Ez|D>^C D2z2|Az Az Az|\
G>^F G2z2|[DA,]z [DA,]z [DB,]z|{B,CD} C2 Ez Ez|
%9
g3 (b/a/) (3a/g/f/ (3e/f/d/|c3 (g/f/) (3e/d/c/ (3B/c/A/|\
G2z2z2|a4b>c'|(c'2(c'/)b/a/g/f/e/) (d/c/B/c/d/e/)|
%14
(e/d/e/f/g/a/) c2 e>d|c2z .C.C.C|D/C/B,/A,/ G,2[G2G,2]|\
E2C .C.B,.C|(D/C/B,/"NB"A,/) G,2.g2|g/_a/g/^f/ g/_e/d/e/ g/e/d/e/|
%20
g/_a/g/^f/ g/d/^c/d/ g/d/c/d/|g/_a/g/^f/ g/_e/B/c/ g/e/B/c/|\
c/d/c/B/ c/d/c/B/ c/d/c/B/|
%23
c/d/c/B/ c/d/c/B/ c/d/c/B/|c2 z/d/c/B/ c/d/c/B/|\
c2 z/d/c/B/ c/_e/d/c/|Bg^fg_ag|d(_a/g/) d(a/g/)\
(3g/f/L_e/ (3e/d/Lc/|
%28
B g^fg_ag|d(_a/g/) d(a/g/) (3g/f/_e/ (3e/d/c/|\
B2z2z2|G,2z2z2||[M:C|]G,2z2 zg/!p!g/ ^fa|]
%33
g2[c'2e2] z g/g/ ^fa|g2 e'2ze'/e'/ e'd'/d'/|\
d'c'/c'/ c'b/b/ ba/a/ ag/g/|f2z2z!p!f/f/ eg|
%37
e2[b2d2]zf/f/ eg|f2d'2 z d'/d'/ d'c'/c'/|\
c'c'/c'/ c'a/a/ ag/g/ gf/f/|[dB]C/C/ EG cc/c/ Bd|
%41
(c4g)d/d/ ^ce|(d4La) a/a/a af/f/|fd/d/ dB/B/ \
BG/G/ GF/F/|(F4E) c/c/ Gd|(c4Lg) d/d/"NB" ce|
%46
(d4La)a/a/ af/f/|fd/d/ dB/B/ BG/G/ Gg/g/|\
gg/g/ ga/a/ af/f/ fg/g/|ge/e/ ef/f/ fd/d/ dg/g/|
%50
ge/e/ ef/f/ fd/d/ de/e/|ec/c/ cd/d/ dB/B/ BG/G/|\
[a2e2]z3/ (g//a//b//) c'2 z3/(g//a//b//)|
%53
L:1/16
c'bc'b c'bc'b c'bag fedc|A4(d^ced) f4 d'c'e'd'|\
f'e'd'c' d'c'ba bagg gfed|
%56
c4z3 (3(g/a/b/) c'4z3 (3(g/a/b/)|c'bag bagf agfe fedc|\
A4(d^ced) f4 d'^c'e'd'|
%59
d'c'ba ba^g^f gfe^d e=dcB|c4z3 (3(e=f=g)a4 z2 e/f/g/|\
(a^gag) (agag) (agab) c'ba"NB"g|
%62
f4(fegf) a4a^gba|"NB"(c'ba^g) (ag^fe) (fe)dc (dcB)A|\
B4 z3 (3d/e/f/ g4 z3 (3d/e/f/|
%65
(g^fgf) (gfgf) (gfgf) (gfed)|c4 (e^dfe) g4 gec'b|\
(e'd'c'b) (c'bag) (ag^fe) (fed^c)|
%68
d4 z4 z2 ^c'c' d'd'aa|bb^ff gg^cc dd^AA BBGG|\
"NB"^F2EF D4 z2 ^c'c' d'd'aa|
%71
bb^ff gg^cc dd^AA BBGG|"NB"z4z4^cde^f gabc'|\
d'4 D4 ^cde^f gabc'|
%74
d'd'^c'c' d'd'c'c' d'd'c'c' d'd'c'c'|d'd'^c'c' d'd'c'c' d'd'c'c' d'd'c'c'|\
d'4 z4 z2 cc ddcc|
%77
d4 z4 z2 ^CC DDCC|D4 z4"NB" z2 D2E2D2|C6 D2 E2^F2G2A2|
%80
B2c2d2c2 B2A2G2^F2|E2D2C2B,2 A,4 D4|G,4 z4 z3 db3a|
%83
^f8 g2>d2b2>a2|^f8 g2>d2b2>a2|((3a2g2).^f2 ((3a2g2).^f2 ((3a2g2).^f2 ((3f2e2).d2|
%86
Ld8 c2>e2a2>b2|L^g8 a2>e2c'2>b2|L^g8 a2>e2c'2>b2|
%89
((3b2a2).g2 ((3g2^f2).e2 ((3e2d2).c2 ((3c2B2).A2|G2G2G2G2 G2g^f gabg|\
(d'c'bc') a4 z2a^g abc'b|
%92
e'd'c'd' b4 z2 (d'c' bag^f)|e2(c'b  ag^fe) d2(fe dcBA)|G8 z4 z3 d.b2a|
%95
^f8g2>d2b2>a2|^f8g2>d2b2>a2|\
((3a2g2).^f2 ((3a2g2).^f2 ((3a2g2).^f2 ((3f2e2).d2|
%98
(d8d2)>e2c'2>b2|(^g8a2)>e2c'2>b2|(^g8a2)>e2c'2>b2|
%101
((3b2a2).g2 ((3g2^f2).e2 ((3e2d2).c2 ((3c2B2).A2|G2G2G2G2 G2g^f gabg|\
(d'c'bc') a4 z2 (a^g) (abc'b)|
%104
(e'd'c'd') b4 z2 (d'^c') (bag^f)|e2(c'b ag^fe) d2(fe dcBA)|\
"NB"G2dd ^c2dd B2gg ^f2gg|
%107
e2gg ^f2gg (c'bag) (agfe)|d2dd ^c2dd B2gg ^f2gg|\
e2gg ^f2gg (c'bag) (agfe)|
%110
d2(GA) A2(Bc) d2(ga) b2bc'|d'2(GA) B2(Bc) d2(ga) .b2(c'b)|\
a2AB .c2(cd) .e2(ab)"NB" a2ac'|
%113
e'2(AB) .c2(cd) .e'2(e'd') c'2ba|.g2(GA) .B2(Bc) .d2(ga) .b2(bc')|\
.d'2(GA) B2Bc d2(ga) b2(c'b)|
%116
.a2(AB) .c2(cd) .e2(ab) .c'2(c'd')|.a2(AB) .c2(cd) e2(e'd') .c'2(ba)|\
.g2(GA) .B2(Bc) .d2(ga) .b2(ba)|
%119
.d'2(GA) .B2Bc .d2(ga) .b2(c'b)|.a2AB .c2(cd) .e2(ab) .c'2(c'd')|\
.e'2(AB) .c2(cd) .e'2(e'd') "NB".c'2ba|
%122
g2 ^cc ddcc ddee ^ffgg|aagg ^ffee ffee ddcc|\
dd^cc ddcc ddee ^ffgg|
%125
aagg ffee ffee dd^cc|dd^cc ddcc ddee ^ffgg|\
aagg ^ffee ffee dd^cc|
%128
d"NB"dee ^ffgg aagg ffee|ddee ^ffgg aagg ffee|\
ddee ^ffgg aagg ffee|
%131
ddee ^ffgg aagg ffee|ddee ^ffgg aagg ffee|\
ddee ^ffgg aagg ffee|
%134
[b4d4][b4d4][b4d4][b4d4]|[g4d4][g4d4][g4e4][g4e4]|\
[a4e4][a4e4][a4e4][a4e4]|
%137
[a4d4][a4d4][a4d4][a4d4]|[b4d4][b4d4][b4d4][b4d4]|\
[b4e4][b4e4][b4e4][b4e4]|
%140
[a4e4][a4e4][a4e4][a4e4]|[a4d4][a4d4][a4d4][a4d4]|\
BB"NB"dd ccee BBdd AAcc|
%143
BBdd ccee BBdd AAcc|BBdd ccee BBdd AAcc|\
BBdd ccee BBdd AAcc|
%146
B4 z4 z2 ff ggff|g4 z4 z2 ^FF GGFF|G4 z4 z2 (G2f2^c2)|
%149
d4 z4 z2 (d2a2e2)|f4 z4 z2 (f2d'2c'2)|wb2wa2wg2w^f2 w=f2we2wd2wc2|
%152
B2A2G2^F2 =F4D4|HB,4 z4 z2 gg ^f2a2|g4 [ae]4 z2 gg ^f2a2|
%155
g4e'4 z2 e'e' e'2d'd'|d'2c'c' c'2bb b2aa a2gg|f4 z4 z2 !p!ff e2g2|
%158
f4 !f![bd]4 z2 g!p!ge2g2|!f!f4 d'4 z2 d'd' d'2c'c'|\
c'2bb b2aa a2gg g2ff|
%161
e2CC E2G2 B2cc B2d2|(c8 Lg2) dd^c2e2|(d8 a2) aa a2ff|
%164
f2dd d2BB B2GG G2FF|(LF8 E2) cc B2d2|(c8 Lg2) dd^c2e2|
%167
_d8 _a2 aa a2ff|_e2cc c2_AA _d2c_B B2AG|_A2_ee e2ff f2 _dd d2ee|
%170
_e2cc c2_dd d2_BB B2ee|_e2c'c' c'2_d'd' d'2_bb g2_ee|c'2_aa a2_bb b2gg g2_ee|
%173
[=ac]4 z3 (e/f/g/ a4) z3 (e/f/g/)|(agag) (agag) (agag) (aga_b)|\
c'4 z3 (g/a/b/) c'4 z3 (g/a/b/)|
%176
(c'bc'b) (c'bc'b) (c'bc'b) (c'_b_ag)|_a4 z3(c/d/e/) f4 z3 (e/f/g/)|\
_c'bc'b c'bc'b c'bc'b c'bc'b|
%179
^d4 z2 _a_b c'4 z3 (=bc'd')| (e'd'e'd') (e'd'e'd') (e'd'e'd') (e'd'e'd')|\
b4 z4 c'bc'b c'e'd'c'|
%182
b4 z4 c'bc'b c'_e'e'c'|ggaa ggaa ggaa ggaa|ggaa ggaa ggaa ggaa|
%185
C4 z4 z3 Ge2>d2|B8 c2>G2e2>d2|(B8 c2)>G2e2>d2|
%188
(d2c2).B2 (d2c2).B2 (d2c2).B2 (B2A2).G2|(G8 F2)>A2f2>e2|\
(^c8 d2)>A2f2>e2|
%191
(^c8 d2)>A2f2>e2|(e2d2).=c2 (c2B2).A2 (A2G2).F2 (F2E2).D2|\
C4 z4 z2 (cB) (cdec)|
%194
(gfef) d4 z2 (dc) defe|(ag^fg) e4 z2 (c'b ag^fg)|\
d2(ag fedc) B2(gf edcB)|
%197
c4z4 z2 c4 z4 z3 Ge2>d2|B8 c2>G2e2>d2|B8 c2>G2e2>d2|
%200
(d2c).B (d2c).B (d2c).B (B2A).G|(A8F2)>A2f2>e2|\
=c8 d2>A2f2>e2|
%203
^c8 d2>A2f2>e2|=c8 d2>A2f2>e2|(e2d).=c (c2B).A (A2G).F (F2E).D|
%206
C4 z4 z2 (cB) (cdec)|(gfef) d4 z2(d^c) (defd)|\
(ag^fg) e4 z2(c'b ag=fe)|
%209
(d2agfedc) (B2gfedcB)|c2cc A2cc e2cc g2cc|\
f2cc f2cc (f[gc][ac]b) (c'bc'b)|
%212
g2cc B2cc e2cc B2cc|f2cc f2cc (fgab) (c'bc'b)|\
.g2(cd) .e2(ef) .g2(cd) .e2(ef)|
%215
.g2(cd) .e2(ef) .g2(cd) .e2(ef)|.d2(de) .f2(fg) .a2(de) .f2(fg)|\
a2(de) f2(fg) a2(ag) .f2(ed)|
%218
c2(cd) e2(ef) g2(CD) E2(EF)|G2(cd) e2(ef) g2(CD) E2(EF)|\
D2(de) f2(fg) a2(DE) F2(FG)|
%221
A2(de) f2(fg) .a2(ag) f2(ed)|gg^ff ggff bbc'c' d'd'e'e'|\
d'd'c'c' bbaa bbaa gg^ff|
%224
gg^ff ggff ggaa bbc'c'|d'd'c'c' bbaa bbaa g^fgf|\
gg^ff ggff ggaa bbc'c'|
%227
d'd'c'c' bb[af][af] bbaa gg^ff|ggaa bbc'c' d'd'c'c' bbaa|\
ggaa bbc'c' d'd'c'c' bbaa|
%230
ggaa bbc'c' d'd'c'c' bbaa|ggaa bbc'c' d'd'c'c' bbaa|[c'e]8 [c'e]8|
%233
[c'e]8 [c'e]8|[d'f]8 [d'f]8|[bd]8 [bd]8|[c'e]8 [c'e]8|\
[c'e]8 [c'e]8|[d'f]8 [d'f]8|
%239
[bd]8 [bd]8|[c'e][c'e]ee ddff ccee BBdd|\
ccee ddff ccee BBdd|
%242
c2(cB cdef) g2(g^f gaba)|(c'2cB cde=f) g2(g^f gabg)|\
c'e'd'c' bd'c'b c'e'd'c' be'c'b|
%245
c'e'd'c' c'e'd'c'  c'e'd'c' c'e'd'c'|c'2 c'(b c'bc'b) a2 g(^f gfgf)|\
g2 (e^f ed)ed e2 (cB cBcB)|
%248
c2e2g2e2 c2e2g2e2|c2e2g2e2 c2e2g2e2|c4 [c'e]4 [c'e]4 [c'e]4|
%251
[c'e]4 z4 [c'e]4 z4|(3GAB "FINE"c12|]

